X: 406
T: Zhu yitian niangjia shang yitian tian
%%abc-version 2.0
%%abcx-abcm2ps-target-version 5.9.1 (29 Sep 2008)
%%abc-creator hum2abc beta
%%abcx-conversion-date 2013/10/02 07:52:30
%%abc-edited-by Helmut Schaffrath
%%humdrum-veritas 850815565
%%humdrum-veritas-data 3619954577
%%continueall 1
%%barnumbers 0
L: 1/16
M: 2/4
K: G
e2e4B A [I:setbarnb 1]| 
G2 E2 d d2 B | 
B d A G2< E2 A | 
E8 | 
e2e4B A | 
G2 E2 d d2 B | 
B d A G2< E2 G | 
A8 |]  



